/* XPM */
static const char *keyboard_icon[] = {
"128 128 16 1",
"0 c #007985",
"1 c #11828d",
"2 c #228b95",
"3 c #33949d",
"4 c #449da6",
"5 c #55a6ae",
"6 c #66afb6",
"7 c #77b8be",
"8 c #88c0c6",
"9 c #99c9ce",
"a c #aad2d6",
"b c #bbdbde",
"c c #cce4e7",
"d c #ddedef",
"e c #eef6f7",
"f c #ffffff",
"00000000000000000000000000000000000000000000000000000000000000000000000000000000000000000000000000000000000000000000000000000000",
"00000000000000000000000000000000000000000000000000000000000000000000000000000000000000000000000000000000000000000000000000000000",
"00000000000000000000000000000000000000000000000000000000000000000000000000000000000000000000000000000000000000000000000000000000",
"00000000000000000000000000000000000000000000000000000000000000000000000000000000000000000000000000000000000000000000000000000000",
"00000000000000000000000000000000000000000000000000000000000000000000000000000000000000000000000000000000000000000000000000000000",
"00000000000000000000000000000000000000000000000000000000000000000000000000000000000000000000000000000000000000000000000000000000",
"00000000000000000000000000000000000000000000000000000000000000000000000000000000000000000000000000000000000000000000000000000000",
"00000000000000000000000000000000000000000000000000000000000000000000000000000000000000000000000000000000000000000000000000000000",
"00000000000000000000000000000000000000000000000000000000000000000000000000000000000000000000000000000000000000000000000000000000",
"00000000000000000000000000000000000000000000000000000000000000000000000000000000000000000000000000000000000000000000000000000000",
"00000000000000000000000000000000000000000000000000000000000000000000000000000000000000000000000000000000000000000000000000000000",
"00000000000000000000000000000000000000000000000000000000000000000000000000000000000000000000000000000000000000000000000000000000",
"00000000000000000000000000000000000000000000000000000000000000000000000000000000000000000000000000000000000000000000000000000000",
"00000000000000000000000000000000000000000000000000000000000000000000000000000000000000000000000000000000000000000000000000000000",
"00000000000000000000000000000000000000000000000000000000000000000000000000000000000000000000000000000000000000000000000000000000",
"00000000000000000000000000000000000000000000000000000000000000000000000000000000000000000000000000000000000000000000000000000000",
"00000000000000000000000000000000000000000000000000000000000000000000000000000000000000000000000000000000000000000000000000000000",
"00000000000000000000000000000000000000000000000000000000000000000000000000000000000000000000000000000000000000000000000000000000",
"00000000000000000000000000000000000000000000000000000000000000000000000000000000000000000000000000000000000000000000000000000000",
"00000000000000000000000000000000000000000000000000000000000000000000000000000000000000000000000000000000000000000000000000000000",
"00000000000000000000000000000000000000000000000000000000000000000000000000000000000000000000000000000000000000000000000000000000",
"00000000000000000000000000000000000000000000000000000000000000000000000000000000000000000000000000000000000000000000000000000000",
"00000000000000000000000000000000000000000000000000000000000000000000000000000000000000000000000000000000000000000000000000000000",
"00000000000000000000000000000000000000000000000000000000000000000000000000000000000000000000000000000000000000000000000000000000",
"00000000000000000000000000000000000000000000000000000000000000000000000000000000000000000000000000000000000000000000000000000000",
"00000000000000000000000000000000000000000000000000000000000000000000000000000000000000000000000000000000000000000000000000000000",
"00000000000000000000000000000000000000000000000000000000000000000000000000000000000000000000000000000000000000000000000000000000",
"00000000000000000000000000000000000000000000000000000000000000000000000000000000000000000000000000000000000000000000000000000000",
"00000000000000000000000000000000000000000000000000000000000000000000000000000000000000000000000000000000000000000000000000000000",
"00000000000000000000000000000000000000000000000000000000000000000000000000000000000000000000000000000000000000000000000000000000",
"00000000000000000000000000000000000000000000000000000000000000000000000000000000000000000000000000000000000000000000000000000000",
"00000000000000000000000000000000000000000000000000000000000000000000000000000000000000000000000000000000000000000000000000000000",
"00000000000000000000000000000000000000000000000000000000000000000000000000000000000000000000000000000000000000000000000000000000",
"00000000000000000000000000000000000000000000000000000000000000000000000000000000000000000000000000000000000000000000000000000000",
"00000000000000000000000000000000000000000000000000000000000000000000000000000000000000000000000000000000000000000000000000000000",
"00000000000000000000000000000000000000000000000000000000000000000000000000000000000000000000000000000000000000000000000000000000",
"00000000000000000000000000000000000000000000000000000000000000000000000000000000000000000000000000000000000000000000000000000000",
"00000000000000000000000000000000000000000000000000000000000000000000000000000000000000000000000000000000000000000000000000000000",
"00000000000000000000000000000001578888888888888888888888888888888888888888888888888888888888887520000000000000000000000000000000",
"0000000000000000000000000000017ceffffffffffffffffffffffffffffffffffffffffffffffffffffffffffffffed8200000000000000000000000000000",
"00000000000000000000000000002bffffffffffffffffffffffffffffffffffffffffffffffffffffffffffffffffffffc30000000000000000000000000000",
"0000000000000000000000000001bfffda999999999999999999999999999999999999999999999999999999999999acfffc2000000000000000000000000000",
"0000000000000000000000000007ffe820000000000000000000000000000000000000000000000000000000000000017eff9000000000000000000000000000",
"000000000000000000000000001cff90000000000000000000000000000000000000000000000000000000000000000007efe200000000000000000000000000",
"000000000000000000000000005efd20000000000000000000000000000000000000000000000000000000000000000001bff600000000000000000000000000",
"000000000000000000000000007ffa000000000000000000000000000000000000000000000000000000000000000000009ff900000000000000000000000000",
"000000000000000000000000008ff9000000000000000000000000000000000000000000000000000000000000000000008ff900000000000000000000000000",
"000000000000000000000000008ff9000000000000000000000000000000000000000000000000000000000000000000008ff900000000000000000000000000",
"000000000000000000000000008ff9000000222220000000022221000000012222100000001222210000000222220000008ff900000000000000000000000000",
"000000000000000000000000008ff9000003888884000000588888300000168888720000027888851000003888884000008ff900000000000000000000000000",
"000000000000000000000000008ff9000006a999a70000018a999a50000039999994000004a999982000006a999a7100008ff900000000000000000000000000",
"000000000000000000000000008ff900000699999700000189999a50000039999994000004a999982000006a99997100008ff900000000000000000000000000",
"000000000000000000000000008ff900000699999700000189999a60000039999994000004a999982000006a99997100008ff900000000000000000000000000",
"000000000000000000000000008ff9000006a999a70000017a99aa50000029a99a93000004aa99a82000006a999a7100008ff900000000000000000000000000",
"000000000000000000000000008ff9000003777773000000477776200000157777610000026777750000003777773000008ff900000000000000000000000000",
"000000000000000000000000008ff9000000111110000000011111000000001111000000000111100000000111110000008ff900000000000000000000000000",
"000000000000000000000000008ff9000000000000000000000000000000000000000000000000000000000000000000008ff900000000000000000000000000",
"000000000000000000000000008ff9000000000000000000000000000000000000000000000000000000000000000000008ff900000000000000000000000000",
"000000000000000000000000008ff9000000000000000000000000000000000000000000000000000000000000000000008ff900000000000000000000000000",
"000000000000000000000000008ff9000000000000000000000000000000000000000000000000000000000000000000008ff900000000000000000000000000",
"000000000000000000000000008ff9000000111110000000011111000000001111100000001111100000000111110000008ff900000000000000000000000000",
"000000000000000000000000008ff9000003777773000000477776200000157777610000026777751000003777773000008ff900000000000000000000000000",
"000000000000000000000000008ff9000006a999a70000018a999a50000029a99a93000004a999a82000006a999a7100008ff900000000000000000000000000",
"000000000000000000000000008ff900000699999700000189999a60000039999994000004a999982000006a99997100008ff900000000000000000000000000",
"000000000000000000000000008ff900000699999700000189999a50000039999994000004a999982000006a99997100008ff900000000000000000000000000",
"000000000000000000000000008ff9000006a999a70000018a999a50000029999994000004a999a82000006a999a7100008ff900000000000000000000000000",
"000000000000000000000000008ff9000003888884000000588887300000168888620000027888851000003888884000008ff900000000000000000000000000",
"000000000000000000000000008ff9000000222220000000022221000000012222100000001222210000000122220000008ff900000000000000000000000000",
"000000000000000000000000008ff9000000000000000000000000000000000000000000000000000000000000000000008ff900000000000000000000000000",
"000000000000000000000000008ff9000000000000000000000000000000000000000000000000000000000000000000008ff900000000000000000000000000",
"000000000000000000000000008ff9000000000000000000000000000000000000000000000000000000000000000000008ff900000000000000000000000000",
"000000000000000000000000008ff9000000000000000000000000000000000000000000000000000000000000000000008ff900000000000000000000000000",
"000000000000000000000000008ff9000000011100000000001111111111111111111111111111000000000011100000008ff900000000000000000000000000",
"000000000000000000000000008ff9000002666663000000366666666666666666666666666666640000002666663000008ff900000000000000000000000000",
"000000000000000000000000008ff9000006aaaaa70000017a9aaaaaaaaaaaaaaaaaaaaaaaaaa9a82000006aaa9a7100008ff900000000000000000000000000",
"000000000000000000000000008ff9000006999997000001899999999999999999999999999999982000006a99997100008ff900000000000000000000000000",
"000000000000000000000000008ff9000006999997000001899999999999999999999999999999982000006a99997100008ff900000000000000000000000000",
"000000000000000000000000008ff9000006a999a7000001899999999999999999999999999999982000006a999a7100008ff900000000000000000000000000",
"000000000000000000000000008ff9000004899995000001599999999999999999999999999999961000004899995000008ff900000000000000000000000000",
"000000000000000000000000008ff9000000333330000000133333333333333333333333333333310000000233331000008ff900000000000000000000000000",
"000000000000000000000000008ff9000000000000000000000000000000000000000000000000000000000000000000008ff900000000000000000000000000",
"000000000000000000000000008ff9000000000000000000000000000000000000000000000000000000000000000000008ff900000000000000000000000000",
"000000000000000000000000007ffa000000000000000000000000000000000000000000000000000000000000000000008ff900000000000000000000000000",
"000000000000000000000000005efc10000000000000000000000000000000000000000000000000000000000000000000bff700000000000000000000000000",
"000000000000000000000000002dff80000000000000000000000000000000000000000000000000000000000000000006efe300000000000000000000000000",
"0000000000000000000000000008ffe710000000000000000000000000000000000000000000000000000000000000016dffa000000000000000000000000000",
"0000000000000000000000000001cfffb98888888888888888888888888888888888888888888888888888888888888beffd3000000000000000000000000000",
"00000000000000000000000000003cffffffffffffffffffffffffffffffffffffffffffffffffffffffffffffffffffffd40000000000000000000000000000",
"0000000000000000000000000000029effffffffffffffffffffffffffffffffffffffffffffffffffffffffffffffffea300000000000000000000000000000",
"00000000000000000000000000000002689999999999999999999999999999999999999999999999999999999999999730000000000000000000000000000000",
"00000000000000000000000000000000000000000000000000000000000000000000000000000000000000000000000000000000000000000000000000000000",
"00000000000000000000000000000000000000000000000000000000000000000000000000000000000000000000000000000000000000000000000000000000",
"00000000000000000000000000000000000000000000000000000000000000000000000000000000000000000000000000000000000000000000000000000000",
"00000000000000000000000000000000000000000000000000000000000000000000000000000000000000000000000000000000000000000000000000000000",
"00000000000000000000000000000000000000000000000000000000000000000000000000000000000000000000000000000000000000000000000000000000",
"00000000000000000000000000000000000000000000000000000000000000000000000000000000000000000000000000000000000000000000000000000000",
"00000000000000000000000000000000000000000000000000000000000000000000000000000000000000000000000000000000000000000000000000000000",
"00000000000000000000000000000000000000000000000000000000000000000000000000000000000000000000000000000000000000000000000000000000",
"00000000000000000000000000000000000000000000000000000000000000000000000000000000000000000000000000000000000000000000000000000000",
"00000000000000000000000000000000000000000000000000000000000000000000000000000000000000000000000000000000000000000000000000000000",
"00000000000000000000000000000000000000000000000000000000000000000000000000000000000000000000000000000000000000000000000000000000",
"00000000000000000000000000000000000000000000000000000000000000000000000000000000000000000000000000000000000000000000000000000000",
"00000000000000000000000000000000000000000000000000000000000000000000000000000000000000000000000000000000000000000000000000000000",
"00000000000000000000000000000000000000000000000000000000000000000000000000000000000000000000000000000000000000000000000000000000",
"00000000000000000000000000000000000000000000000000000000000000000000000000000000000000000000000000000000000000000000000000000000",
"00000000000000000000000000000000000000000000000000000000000000000000000000000000000000000000000000000000000000000000000000000000",
"00000000000000000000000000000000000000000000000000000000000000000000000000000000000000000000000000000000000000000000000000000000",
"00000000000000000000000000000000000000000000000000000000000000000000000000000000000000000000000000000000000000000000000000000000",
"00000000000000000000000000000000000000000000000000000000000000000000000000000000000000000000000000000000000000000000000000000000",
"00000000000000000000000000000000000000000000000000000000000000000000000000000000000000000000000000000000000000000000000000000000",
"00000000000000000000000000000000000000000000000000000000000000000000000000000000000000000000000000000000000000000000000000000000",
"00000000000000000000000000000000000000000000000000000000000000000000000000000000000000000000000000000000000000000000000000000000",
"00000000000000000000000000000000000000000000000000000000000000000000000000000000000000000000000000000000000000000000000000000000",
"00000000000000000000000000000000000000000000000000000000000000000000000000000000000000000000000000000000000000000000000000000000",
"00000000000000000000000000000000000000000000000000000000000000000000000000000000000000000000000000000000000000000000000000000000",
"00000000000000000000000000000000000000000000000000000000000000000000000000000000000000000000000000000000000000000000000000000000",
"00000000000000000000000000000000000000000000000000000000000000000000000000000000000000000000000000000000000000000000000000000000",
"00000000000000000000000000000000000000000000000000000000000000000000000000000000000000000000000000000000000000000000000000000000",
"00000000000000000000000000000000000000000000000000000000000000000000000000000000000000000000000000000000000000000000000000000000",
"00000000000000000000000000000000000000000000000000000000000000000000000000000000000000000000000000000000000000000000000000000000",
"00000000000000000000000000000000000000000000000000000000000000000000000000000000000000000000000000000000000000000000000000000000",
"00000000000000000000000000000000000000000000000000000000000000000000000000000000000000000000000000000000000000000000000000000000",
"00000000000000000000000000000000000000000000000000000000000000000000000000000000000000000000000000000000000000000000000000000000",
"00000000000000000000000000000000000000000000000000000000000000000000000000000000000000000000000000000000000000000000000000000000",
"00000000000000000000000000000000000000000000000000000000000000000000000000000000000000000000000000000000000000000000000000000000",
"00000000000000000000000000000000000000000000000000000000000000000000000000000000000000000000000000000000000000000000000000000000",
"00000000000000000000000000000000000000000000000000000000000000000000000000000000000000000000000000000000000000000000000000000000",
"00000000000000000000000000000000000000000000000000000000000000000000000000000000000000000000000000000000000000000000000000000000"
};
